include/LD/assets/icons/custom/custom97.svg

<?xml version="1.0"?><svg xmlns="http://www.w3.org/2000/svg" width="100" height="100" viewBox="0 0 100 100"><path fill="#fff" d="m60 54.4v-25.3c0-6.2-4.8-11.1-10.9-11.1h-0.2c-6.1 0-10.9 4.9-10.9 11.1v25.3c-3.2 3-5 7.2-5 11.6 0 8.8 7.2 16 16 16s16-7.2 16-16c0-4.5-1.8-8.6-5-11.6z m-2.6 11.6h-16.8c-0.9 0-1.6-0.9-1.5-1.8 0.4-2.4 1.7-4.5 3.6-6 0.7-0.6 1.2-1.5 1.2-2.4v-26.7c0-2.9 2.2-5.1 4.9-5.1h0.2c2.8 0 4.9 2.2 4.9 5.1v0.9h-3c-1.7 0-3 1.3-3 3s1.3 3 3 3h3v4h-3c-1.7 0-3 1.3-3 3s1.3 3 3 3h3v4h-3c-1.7 0-3 1.3-3 3s1.3 3 3 3h3c0.1 0.9 0.5 1.6 1.2 2.2 1.9 1.5 3.2 3.7 3.6 6 0.3 0.9-0.4 1.8-1.3 1.8z"></path></svg>

<svg xmlns="http://www.w3.org/2000/svg" x="0px" y="0px"
	 width="100px" height="100px" viewBox="0 0 100 100" enable-background="new 0 0 100 100" xml:space="preserve">
<path fill="#FFFFFF" d="M60,54.4V29.1C60,22.9,55.2,18,49.1,18h-0.2C42.8,18,38,22.9,38,29.1v25.3c-3.2,3-5,7.199-5,11.6
	c0,8.8,7.2,16,16,16s16-7.2,16-16C65,61.5,63.2,57.4,60,54.4z M57.4,66H40.6c-0.9,0-1.6-0.9-1.5-1.8c0.4-2.4,1.7-4.5,3.6-6
	c0.7-0.601,1.2-1.5,1.2-2.4V29.1c0-2.9,2.2-5.1,4.9-5.1H49c2.8,0,4.9,2.2,4.9,5.1V30h-3c-1.7,0-3,1.3-3,3s1.3,3,3,3h3v4h-3
	c-1.7,0-3,1.3-3,3s1.3,3,3,3h3v4h-3c-1.7,0-3,1.3-3,3s1.3,3,3,3h3c0.1,0.9,0.5,1.6,1.199,2.2c1.9,1.5,3.2,3.7,3.601,6
	C59,65.1,58.3,66,57.4,66z"/>
</svg>
